app/icon/intro/hospital.svg

<svg t="1597159435440" class="icon" viewBox="0 0 1024 1024" version="1.1" xmlns="http://www.w3.org/2000/svg" p-id="5701" width="81" height="81"><path d="M874.8228125 349.8125H740.75v113.4375h75.9375v58.125h-75.9375v68.4375h75.9375v60h-75.9375v63.75h75.9375v59.0625h-75.9375v91.875h190.3125V408.75125C931.0625 376.1928125 906.395 349.8125 874.8228125 349.8125zM285.125 772.625h-76.875v-59.0625h76.875v-63.75h-76.875v-60h76.875v-68.4375h-76.875v-58.125h76.875V349.8125H150.7175C119.1453125 349.8125 92.9375 376.1928125 92.9375 408.75125V864.5h192.1875v-91.875z" fill="#BDCCD4" p-id="5702"></path><path d="M740.75 772.293125V150.0153125C740.75 117.456875 714.20375 91.0625 681.6453125 91.0625h-337.340625C311.74625 91.0625 285.125 117.456875 285.125 150.0153125V864.5H92.9375v65.625h838.125v-65.625H740.75v-92.206875zM407.9375 212h72.1875v-72.1875h65.625v72.1875h72.1875v65.625h-72.1875v71.25h-65.625v-71.25h-72.1875v-65.625z m24.375 205.3125h64.6875v65.625h-64.6875v-65.625z m162.1875 65.625h-65.625v-65.625h65.625v65.625z m96.5625 0h-65.625v-65.625h65.625v65.625z m-355.3125-65.625h64.6875v65.625h-64.6875v-65.625z m96.5625 130.3125h64.6875v65.625h-64.6875v-65.625z m162.1875 65.625h-65.625v-65.625h65.625v65.625z m96.5625 0h-65.625v-65.625h65.625v65.625z m-355.3125-65.625h64.6875v65.625h-64.6875v-65.625z m96.5625 129.375h64.6875v65.625h-64.6875v-65.625z m162.1875 65.625h-65.625v-65.625h65.625v65.625z m96.5625 0h-65.625v-65.625h65.625v65.625z m-355.3125-65.625h64.6875v65.625h-64.6875v-65.625z m64.6875 186.5625h-64.6875v-64.6875h64.6875v64.6875z m96.5625 0h-64.6875v-64.6875h64.6875v64.6875z m97.5 0h-65.625v-64.6875h65.625v64.6875z m96.5625 0h-65.625v-64.6875h65.625v64.6875z" fill="#F45656" p-id="5703"></path><path d="M335.75 417.3125h64.6875v65.625h-64.6875zM432.3125 417.3125h64.6875v65.625h-64.6875zM528.875 417.3125h65.625v65.625h-65.625zM625.4375 417.3125h65.625v65.625h-65.625zM335.75 547.625h64.6875v65.625h-64.6875zM432.3125 547.625h64.6875v65.625h-64.6875zM528.875 547.625h65.625v65.625h-65.625zM625.4375 547.625h65.625v65.625h-65.625zM335.75 677h64.6875v65.625h-64.6875zM432.3125 677h64.6875v65.625h-64.6875zM528.875 677h65.625v65.625h-65.625zM625.4375 677h65.625v65.625h-65.625zM335.75 798.875h64.6875v64.6875h-64.6875zM432.3125 798.875h64.6875v64.6875h-64.6875zM528.875 798.875h65.625v64.6875h-65.625zM625.4375 798.875h65.625v64.6875h-65.625z" fill="#BDCCD4" p-id="5704"></path></svg>

<svg class="icon" viewBox="0 0 1024 1024" xmlns="http://www.w3.org/2000/svg" width="81" height="81"><path d="M874.823 349.813H740.75V463.25h75.938v58.125H740.75v68.438h75.938v60H740.75v63.75h75.938v59.062H740.75V864.5h190.313V408.751c0-32.558-24.668-58.938-56.24-58.938zM285.125 772.625H208.25v-59.063h76.875v-63.75H208.25v-60h76.875v-68.437H208.25V463.25h76.875V349.812H150.718c-31.573 0-57.78 26.38-57.78 58.94V864.5h192.187v-91.875z" fill="#BDCCD4"/><path d="M740.75 772.293V150.015c0-32.558-26.546-58.952-59.105-58.952h-337.34c-32.559 0-59.18 26.394-59.18 58.952V864.5H92.937v65.625h838.125V864.5H740.75v-92.207zM407.937 212h72.188v-72.188h65.625V212h72.188v65.625H545.75v71.25h-65.625v-71.25h-72.188V212zm24.375 205.313H497v65.625h-64.688v-65.625zM594.5 482.938h-65.625v-65.625H594.5v65.625zm96.563 0h-65.625v-65.625h65.625v65.625zM335.75 417.313h64.688v65.625H335.75v-65.625zm96.563 130.312H497v65.625h-64.688v-65.625zM594.5 613.25h-65.625v-65.625H594.5v65.625zm96.563 0h-65.625v-65.625h65.625v65.625zM335.75 547.625h64.688v65.625H335.75v-65.625zM432.313 677H497v65.625h-64.688V677zM594.5 742.625h-65.625V677H594.5v65.625zm96.563 0h-65.625V677h65.625v65.625zM335.75 677h64.688v65.625H335.75V677zm64.688 186.563H335.75v-64.688h64.688v64.688zm96.562 0h-64.688v-64.688H497v64.688zm97.5 0h-65.625v-64.688H594.5v64.688zm96.563 0h-65.625v-64.688h65.625v64.688z" fill="#F45656"/><path d="M335.75 417.313h64.688v65.625H335.75zm96.563 0H497v65.625h-64.688zm96.562 0H594.5v65.625h-65.625zm96.563 0h65.625v65.625h-65.625zM335.75 547.625h64.688v65.625H335.75zm96.563 0H497v65.625h-64.688zm96.562 0H594.5v65.625h-65.625zm96.563 0h65.625v65.625h-65.625zM335.75 677h64.688v65.625H335.75zm96.563 0H497v65.625h-64.688zm96.562 0H594.5v65.625h-65.625zm96.563 0h65.625v65.625h-65.625zM335.75 798.875h64.688v64.688H335.75zm96.563 0H497v64.688h-64.688zm96.562 0H594.5v64.688h-65.625zm96.563 0h65.625v64.688h-65.625z" fill="#BDCCD4"/></svg>
